X:1
T:Fish in the Millpond
M:6/8
C:
S:Bruno as remembered by SLA
N:obtain permission to perform from Pipe \& Bowl
A:Chipping Under Oakwood
O:Renaissance Pleasure Faire
R:
%:NoTeX
%:NoWWW
%P:A.(AB)$^3$.A
P:A.(AB)3.A
K:G
I:speed 300
P:A
|: A>Bc  d>ed  | c>AB  c>BA  | d>BG  D>AF  | G>AG  G3 :|
P:B
M:4/4
I:speed 300
|: B2 d2 G2 AB | c2 e2 A2 B2 | c2 e2 Ac BA |1 G2 B2 D4 :|2 G2 F2 G4 ||
